X:2249
L:1/8
M:4/4
K:D
 D>F | A>B AF B>c dB | A<F E3/2{G}F D3{F} A | d>cd{f}e dcBA | BAdF A2 z A | d>c d{f}e dc BA | 
 BAGF B3 c | d>cBA B>c dB | A<F E D/E/G/F/ D2 z || D>F | AB AF B>c dB | A<F E>F D2 z{F} A | 
 d>cd{f}e dcBA | BAdF A2 A | d>c (3dfe d>cBA | BA GF B3 c | d>cBA B>c dc | 
 de f2 D/E/F/G/A/B/c/d/c/e/d/c/d/B/ A/>F/ TE2 D/E/ FGB>A{C} D ||

